apple.svg

<svg viewBox="0 0 24 24" xmlns="http://www.w3.org/2000/svg"><path d="M18.5493 12.7534C18.5204 9.71631 21.0305 8.25713 21.1434 8.18764C19.7306 6.12336 17.536 5.83963 16.7543 5.80778C14.8869 5.6167 13.1093 6.90796 12.1596 6.90796C11.21 6.90796 9.74792 5.83384 8.19898 5.86569C6.16076 5.89464 4.28177 7.04983 3.23081 8.87381C1.11731 12.5391 2.6923 17.9821 4.75658 20.9613C5.76701 22.4176 6.96563 24.0592 8.54641 23.9984C10.0693 23.9376 10.6425 23.014 12.4781 23.014C14.3137 23.014 14.8319 23.9984 16.4387 23.9694C18.0745 23.9376 19.111 22.4813 20.1128 21.0192C21.265 19.3255 21.7428 17.6897 21.7717 17.6029C21.7341 17.5884 18.5841 16.3811 18.5493 12.7534M15.5296 3.83325C16.3693 2.81704 16.9338 1.40707 16.7804 0C15.5731 0.0492185 14.111 0.804867 13.2453 1.82108C12.4694 2.7186 11.789 4.15462 11.9743 5.53274C13.3148 5.63697 14.6929 4.84657 15.5296 3.83325" fill="#000000"/></svg>

<svg viewBox="0 0 24 24" xmlns="http://www.w3.org/2000/svg"><path d="M18.55 12.753c-.03-3.037 2.48-4.496 2.593-4.565-1.412-2.065-3.607-2.348-4.389-2.38-1.867-.191-3.645 1.1-4.594 1.1-.95 0-2.412-1.074-3.961-1.042-2.038.029-3.917 1.184-4.968 3.008-2.114 3.665-.539 9.108 1.526 12.087 1.01 1.457 2.209 3.098 3.79 3.037 1.522-.06 2.095-.984 3.931-.984 1.836 0 2.354.984 3.96.955 1.637-.031 2.673-1.488 3.675-2.95 1.152-1.693 1.63-3.33 1.659-3.416-.038-.015-3.188-1.222-3.223-4.85m-3.02-8.92C16.37 2.817 16.935 1.407 16.78 0c-1.207.05-2.669.805-3.535 1.821-.776.898-1.456 2.334-1.27 3.712 1.34.104 2.718-.686 3.555-1.7"/></svg>
